src/images/single-assets/xVOLT.svg

<svg width="352" height="352" viewBox="0 0 352 352" fill="none" xmlns="http://www.w3.org/2000/svg">
<path d="M88.0006 87.9994L87.9994 88.0006C39.3987 136.601 39.3987 215.399 87.9994 263.999L88.0006 264.001C136.601 312.601 215.399 312.601 263.999 264.001L264.001 263.999C312.601 215.399 312.601 136.601 264.001 88.0006L263.999 87.9994C215.399 39.3987 136.601 39.3987 88.0006 87.9994Z" fill="#071927"/>
<path d="M175.998 81.7851C188.154 81.7797 200.196 84.1222 211.463 88.6841C225.992 94.5716 238.819 103.996 248.779 116.101C258.739 128.206 265.517 142.608 268.497 157.998C271.981 175.95 270.184 194.526 263.325 211.478C257.437 226.006 248.012 238.832 235.907 248.792C223.802 258.752 209.401 265.53 194.011 268.51C176.059 271.993 157.482 270.197 140.531 263.337C126.003 257.45 113.176 248.026 103.216 235.921C93.2559 223.817 86.4782 209.415 83.4989 194.025C80.0147 176.074 81.8115 157.498 88.6714 140.547C94.5572 126.017 103.981 113.188 116.086 103.226C128.191 93.2636 142.594 86.4845 157.985 83.5046C163.921 82.3597 169.953 81.7839 175.998 81.7851ZM175.998 64.2749C147.402 64.2749 118.806 75.1837 96.9887 97.0014C53.3534 140.637 53.3534 211.385 96.9887 255.02C118.806 276.838 147.402 287.746 175.998 287.746C204.594 287.746 233.19 276.838 255.006 255.02C298.641 211.385 298.641 140.637 255.006 97.0014C233.19 75.1767 204.594 64.2749 175.998 64.2749Z" fill="url(#paint0_linear_6264_253)"/>
<path d="M134.744 163.137C132.517 164.847 135.514 179.533 137.619 181.633C139.724 183.732 158.003 200.081 158.003 200.081L163.553 192.027C163.553 192.027 137.628 161.009 134.744 163.137Z" fill="url(#paint1_linear_6264_253)"/>
<path d="M94.6162 293.467L217.574 208.237C219.653 206.794 221.288 192.127 218.788 190.403C216.287 188.678 94.6162 293.467 94.6162 293.467Z" fill="url(#paint2_linear_6264_253)"/>
<path d="M252.011 57.1206L186.724 163.558L191.688 167.813L252.011 57.1206Z" fill="url(#paint3_linear_6264_253)"/>
<path d="M249.428 55.6422L134.737 163.13C134.56 163.295 134.42 163.495 134.325 163.716C134.23 163.938 134.181 164.177 134.183 164.419C134.184 164.66 134.236 164.899 134.334 165.119C134.432 165.34 134.574 165.538 134.752 165.701L163.553 192.027L92.4181 291.388C91.385 292.831 93.2359 294.577 94.6157 293.462L218.763 193.1C218.964 192.938 219.126 192.733 219.239 192.5C219.351 192.268 219.411 192.013 219.413 191.754C219.415 191.496 219.36 191.24 219.252 191.005C219.144 190.771 218.985 190.563 218.787 190.397L186.969 163.682L251.771 57.5473C252.697 56.0379 250.724 54.427 249.428 55.6422Z" fill="#FFB600"/>
<path d="M208.029 93.2249L228.724 73.8289" stroke="#071927" stroke-width="2" stroke-miterlimit="10"/>
<path d="M118.571 277.904L141.9 261.755" stroke="#071927" stroke-width="2" stroke-miterlimit="10"/>
<path d="M126 165L80.5 107.5L70.5 120L58.5 173.5L74.5 237L126 180.5V165Z" fill="#071927"/>
<path d="M81.8777 142.768L91.1804 159.867L100.743 142.768H116.698L100.795 170.261L117.425 199H101.418L91.2843 180.914L81.1501 199H65.1433L81.7738 170.261L65.8709 142.768H81.8777Z" fill="url(#paint4_linear_6264_253)"/>
<defs>
<linearGradient id="paint0_linear_6264_253" x1="106.575" y1="263.568" x2="245.421" y2="88.4389" gradientUnits="userSpaceOnUse">
<stop stop-color="#FF5400"/>
<stop offset="1" stop-color="#FFB600"/>
</linearGradient>
<linearGradient id="paint1_linear_6264_253" x1="148.756" y1="163.032" x2="148.756" y2="200.081" gradientUnits="userSpaceOnUse">
<stop stop-color="#FF4800"/>
<stop offset="1" stop-color="#892700"/>
</linearGradient>
<linearGradient id="paint2_linear_6264_253" x1="228.5" y1="186.5" x2="90.5" y2="297" gradientUnits="userSpaceOnUse">
<stop stop-color="#FF4800"/>
<stop offset="1" stop-color="#892700"/>
</linearGradient>
<linearGradient id="paint3_linear_6264_253" x1="219.368" y1="57.1206" x2="219.368" y2="167.813" gradientUnits="userSpaceOnUse">
<stop offset="0.432292" stop-color="#FF4800"/>
<stop offset="1" stop-color="#892700"/>
</linearGradient>
<linearGradient id="paint4_linear_6264_253" x1="74.4141" y1="211.476" x2="142.104" y2="173.909" gradientUnits="userSpaceOnUse">
<stop stop-color="#FF5400"/>
<stop offset="1" stop-color="#FFB600"/>
</linearGradient>
</defs>
</svg>

<svg xmlns="http://www.w3.org/2000/svg" width="352" height="352" fill="none"><path fill="#071927" d="M88 88C39.398 136.602 39.398 215.4 88 264v.002c48.601 48.6 127.399 48.6 175.999 0l.002-.002c48.6-48.6 48.6-127.398 0-175.998l-.002-.002c-48.6-48.6-127.398-48.6-175.998 0"/><path fill="url(#a)" d="M175.998 81.785a94.4 94.4 0 0 1 35.465 6.9 94.08 94.08 0 0 1 57.034 69.313 94.55 94.55 0 0 1-5.172 53.48 94.09 94.09 0 0 1-69.314 57.032 94.55 94.55 0 0 1-53.48-5.173 94.08 94.08 0 0 1-57.032-69.312 94.54 94.54 0 0 1 5.172-53.478 94.08 94.08 0 0 1 69.314-57.042 95 95 0 0 1 18.013-1.72m0-17.51c-28.596 0-57.192 10.909-79.01 32.726-43.635 43.636-43.635 114.384 0 158.019 21.818 21.818 50.414 32.726 79.01 32.726s57.192-10.908 79.008-32.726c43.635-43.635 43.635-114.383 0-158.019-21.816-21.824-50.412-32.726-79.008-32.726"/><path fill="url(#b)" d="M134.744 163.137c-2.227 1.71.77 16.396 2.875 18.496s20.384 18.448 20.384 18.448l5.55-8.054s-25.925-31.018-28.809-28.89"/><path fill="url(#c)" d="m94.616 293.467 122.958-85.23c2.079-1.443 3.714-16.11 1.214-17.834S94.616 293.467 94.616 293.467"/><path fill="url(#d)" d="m252.011 57.12-65.287 106.438 4.964 4.255z"/><path fill="#FFB600" d="M249.428 55.642 134.737 163.13a1.74 1.74 0 0 0-.554 1.289 1.75 1.75 0 0 0 .569 1.282l28.801 26.326-71.135 99.361c-1.033 1.443.818 3.189 2.198 2.074L218.763 193.1a1.75 1.75 0 0 0 .024-2.703l-31.818-26.715 64.802-106.135c.926-1.51-1.047-3.12-2.343-1.905"/><path stroke="#071927" stroke-miterlimit="10" stroke-width="2" d="m208.029 93.225 20.695-19.396M118.571 277.904l23.329-16.149"/><path fill="#071927" d="m126 165-45.5-57.5-10 12.5-12 53.5 16 63.5 51.5-56.5z"/><path fill="url(#e)" d="m81.878 142.768 9.302 17.099 9.563-17.099h15.955l-15.903 27.493L117.425 199h-16.007l-10.134-18.086L81.15 199H65.143l16.63-28.739-15.902-27.493z"/><defs><linearGradient id="a" x1="106.575" x2="245.421" y1="263.568" y2="88.439" gradientUnits="userSpaceOnUse"><stop stop-color="#FF5400"/><stop offset="1" stop-color="#FFB600"/></linearGradient><linearGradient id="b" x1="148.756" x2="148.756" y1="163.032" y2="200.081" gradientUnits="userSpaceOnUse"><stop stop-color="#FF4800"/><stop offset="1" stop-color="#892700"/></linearGradient><linearGradient id="c" x1="228.5" x2="90.5" y1="186.5" y2="297" gradientUnits="userSpaceOnUse"><stop stop-color="#FF4800"/><stop offset="1" stop-color="#892700"/></linearGradient><linearGradient id="d" x1="219.368" x2="219.368" y1="57.121" y2="167.813" gradientUnits="userSpaceOnUse"><stop offset=".432" stop-color="#FF4800"/><stop offset="1" stop-color="#892700"/></linearGradient><linearGradient id="e" x1="74.414" x2="142.104" y1="211.476" y2="173.909" gradientUnits="userSpaceOnUse"><stop stop-color="#FF5400"/><stop offset="1" stop-color="#FFB600"/></linearGradient></defs></svg>
